X: 2019
T: RANNOCH LODGE
R: Strathspey.
%R: strathspey
N: This is version 2, for ABC software that understands voice overlays.
B: James Kerr "Merry Melodies" v.2 p.5 #19
Z: 2016 John Chambers <jc:trillian.mit.edu>
M: C
L: 1/16
K: A
ud2 |\
vc3vdue3uc vf3vdue3ud | c3de3c fedc B2d2 |\
c3de3c f3de3c | dcBA G2B2 cA3 A2 :|
|: uE2 |\
C3EA3E F3EA3E | C3EA3c BB,3B,3D |\
"^2nd"C3EA3E D3FB3F & "_1st"C3EA3c D3FB3d | (3c2d2e2 (3B2c2d2 cA3 A2 :|
